.local/share/icons/Gruvbox-Plus-Dark/actions/16/distribute-horizontal.svg

<svg xmlns="http://www.w3.org/2000/svg" width="16" height="16" viewBox="0 0 16 16">
 <defs>
  <style id="current-color-scheme" type="text/css">
   .ColorScheme-Text { color:#ebdbb2; } .ColorScheme-Highlight { color:#458588; }
  </style>
 </defs>
 <path style="fill:currentColor" class="ColorScheme-Text" d="M 1 3.0039062 L 1 13.003906 L 5 13.003906 L 5 3.0039062 L 1 3.0039062 z M 11 3.0039062 L 11 13.003906 L 15 13.003906 L 15 3.0039062 L 11 3.0039062 z M 6 6.0039062 L 6 10.003906 L 7 10.003906 L 7 9.0039062 L 9 9.0039062 L 9 10.003906 L 10 10.003906 L 10 6.0039062 L 9 6.0039062 L 9 7.0039062 L 7 7.0039062 L 7 6.0039062 L 6 6.0039062 z"/>
</svg>

<svg width="16" height="16" version="1.1" xmlns="http://www.w3.org/2000/svg">
  <defs>
    <style id="current-color-scheme" type="text/css">.ColorScheme-Text { color:#ebdbb2; } .ColorScheme-Highlight { color:#458588; }</style>
  </defs>
  <path class="ColorScheme-Text" d="m1 3.004v10h4v-10h-4zm10 0v10h4v-10h-4zm-5 3v4h1v-1h2v1h1v-4h-1v1h-2v-1h-1z" fill="currentColor"/>
</svg>
